src/svg/uf05a-info-circle.svg

<!-- Generated by IcoMoon.io -->
<svg version="1.1" xmlns="http://www.w3.org/2000/svg" width="27" height="32" viewBox="0 0 27 32">
<path d="M18.286 24.571v-2.857c0-0.321-0.25-0.571-0.571-0.571h-1.714v-9.143c0-0.321-0.25-0.571-0.571-0.571h-5.714c-0.321 0-0.571 0.25-0.571 0.571v2.857c0 0.321 0.25 0.571 0.571 0.571h1.714v5.714h-1.714c-0.321 0-0.571 0.25-0.571 0.571v2.857c0 0.321 0.25 0.571 0.571 0.571h8c0.321 0 0.571-0.25 0.571-0.571zM16 8.571v-2.857c0-0.321-0.25-0.571-0.571-0.571h-3.429c-0.321 0-0.571 0.25-0.571 0.571v2.857c0 0.321 0.25 0.571 0.571 0.571h3.429c0.321 0 0.571-0.25 0.571-0.571zM27.429 16c0 7.571-6.143 13.714-13.714 13.714s-13.714-6.143-13.714-13.714 6.143-13.714 13.714-13.714 13.714 6.143 13.714 13.714z"></path>
</svg>

<svg xmlns="http://www.w3.org/2000/svg" width="27" height="32"><path d="M18.286 24.571v-2.857a.564.564 0 0 0-.571-.571h-1.714V12a.564.564 0 0 0-.571-.571H9.716a.564.564 0 0 0-.571.571v2.857c0 .321.25.571.571.571h1.714v5.714H9.716a.564.564 0 0 0-.571.571v2.857c0 .321.25.571.571.571h8c.321 0 .571-.25.571-.571zM16 8.571V5.714a.564.564 0 0 0-.571-.571H12a.564.564 0 0 0-.571.571v2.857c0 .321.25.571.571.571h3.429c.321 0 .571-.25.571-.571zM27.429 16c0 7.571-6.143 13.714-13.714 13.714S.001 23.571.001 16 6.144 2.286 13.715 2.286 27.429 8.429 27.429 16z"/></svg>
